X:190
T:Half Past Four
C:Adam Steffey (One More For The Road)
N:Transcribed by James Dalton 
R:bluegrass
L:1/8
Q:1/4=290
M:4/4
K:C
z6 e^g | "A"a^g bg ag e^c | "D"de ^fa "A"ed ^ce | ^ga ab ag e^c | "D"de ^f^g "A"a2 ae | 
"G"ga bg e^f ge | "A"^fe df ed ^cA | ^ce e^f ec Ac | "E"BA ^GB "A"A2 e^g | a^g bg ag e^c | 
"D"de ^fa "A"ed ^ce | ^ga ab ag e^c | "D"de ^f^g "A"a2 ae | "G"ga bg e^f ge | 
"A"^fe df ed ^cA | ^ce e^f ec Ac | "E"BA ^GB "A"A2 E/^F/G | AB ^cA dA cA | "E"BA ^GA BA GA | 
"A"AB ^cA cd dc | "E"BA ^GB AG EA | "A"AB ^cA dA cA | "E"B^G AA AB ^cA | "A"^ce e^f e2 dA | 
"E"^cA B^G "A"A2 E/^F/G | AB ^cA dA cA | "E"BA ^GA BA GA | "A"AB ^cA cd dc | "E"BA ^GB AG EA | 
"A"AB ^cA dA cA | "E"B^G AA AB ^cA | "A"^ce e^f e2 dA | "E"^cA B^G "A"A4 | 


